symbols/web/library_books/materialsymbolsrounded/library_books_wght700gradN25fill1_24px.svg

<svg xmlns="http://www.w3.org/2000/svg" height="24" width="24"><path d="M11.075 10.625h6.75q.45 0 .775-.313.325-.312.325-.762t-.325-.775q-.325-.325-.775-.325h-6.75q-.45 0-.763.325Q10 9.1 10 9.55t.312.762q.313.313.763.313Zm0 3.125H13.6q.45 0 .763-.312.312-.313.312-.788 0-.45-.312-.763-.313-.312-.763-.312h-2.525q-.45 0-.763.312Q10 12.2 10 12.65q0 .475.312.788.313.312.763.312Zm0-6.225h6.75q.45 0 .775-.313.325-.312.325-.787 0-.45-.325-.763-.325-.312-.775-.312h-6.75q-.45 0-.763.312-.312.313-.312.763 0 .475.312.787.313.313.763.313ZM8.75 18.275q-1.275 0-2.15-.875t-.875-2.15V3.85q0-1.275.875-2.15T8.75.825h11.4q1.275 0 2.15.875t.875 2.15v11.4q0 1.275-.875 2.15t-2.15.875Zm-4.9 4.9q-1.275 0-2.15-.875t-.875-2.15V7.225q0-.6.45-1.05.45-.45 1.075-.45.6 0 1.05.45.45.45.45 1.05V20.15h12.925q.6 0 1.05.45.45.45.45 1.05 0 .625-.45 1.075-.45.45-1.05.45Z"/></svg>

<svg xmlns="http://www.w3.org/2000/svg" height="24" width="24"><path d="M11.075 10.625H17.825Q18.275 10.625 18.6 10.312Q18.925 10 18.925 9.55Q18.925 9.1 18.6 8.775Q18.275 8.45 17.825 8.45H11.075Q10.625 8.45 10.312 8.775Q10 9.1 10 9.55Q10 10 10.312 10.312Q10.625 10.625 11.075 10.625ZM11.075 13.75H13.6Q14.05 13.75 14.363 13.438Q14.675 13.125 14.675 12.65Q14.675 12.2 14.363 11.887Q14.05 11.575 13.6 11.575H11.075Q10.625 11.575 10.312 11.887Q10 12.2 10 12.65Q10 13.125 10.312 13.438Q10.625 13.75 11.075 13.75ZM11.075 7.525H17.825Q18.275 7.525 18.6 7.212Q18.925 6.9 18.925 6.425Q18.925 5.975 18.6 5.662Q18.275 5.35 17.825 5.35H11.075Q10.625 5.35 10.312 5.662Q10 5.975 10 6.425Q10 6.9 10.312 7.212Q10.625 7.525 11.075 7.525ZM8.75 18.275Q7.475 18.275 6.6 17.4Q5.725 16.525 5.725 15.25V3.85Q5.725 2.575 6.6 1.7Q7.475 0.825 8.75 0.825H20.15Q21.425 0.825 22.3 1.7Q23.175 2.575 23.175 3.85V15.25Q23.175 16.525 22.3 17.4Q21.425 18.275 20.15 18.275ZM3.85 23.175Q2.575 23.175 1.7 22.3Q0.825 21.425 0.825 20.15V7.225Q0.825 6.625 1.275 6.175Q1.725 5.725 2.35 5.725Q2.95 5.725 3.4 6.175Q3.85 6.625 3.85 7.225V20.15Q3.85 20.15 3.85 20.15Q3.85 20.15 3.85 20.15H16.775Q17.375 20.15 17.825 20.6Q18.275 21.05 18.275 21.65Q18.275 22.275 17.825 22.725Q17.375 23.175 16.775 23.175Z"/></svg>
